src/components/footer/img/viber.svg

<svg width="31" height="30" viewBox="0 0 31 30" fill="none" xmlns="http://www.w3.org/2000/svg">
<path d="M30.2102 17.3674C31.1865 9.84033 29.7411 5.08827 27.1338 2.93892L27.1351 2.93767C22.9269 -0.732843 8.71508 -1.27611 3.68052 3.10252C1.4196 5.24438 0.623234 8.38786 0.535961 12.2794C0.448688 16.1722 0.345051 23.4646 7.76462 25.4428H7.77144L7.76462 28.4639C7.76462 28.4639 7.71417 29.6878 8.56781 29.9339C9.54417 30.2236 9.98599 29.6554 13.0228 26.3333C18.101 26.7367 22.001 25.8125 22.4442 25.6776C23.4697 25.3629 29.272 24.6598 30.2102 17.3674ZM13.5233 24.2077C13.5233 24.2077 10.3092 27.8782 9.30963 28.8311C8.98235 29.1408 8.62372 29.1121 8.62917 28.4976C8.62917 28.0942 8.65372 23.482 8.65372 23.482C2.36324 21.831 2.73415 15.6215 2.80233 12.3731C2.87051 9.12346 3.51961 6.46206 5.43416 4.66989C9.85099 0.876987 22.3106 1.72499 25.4851 4.45758C29.3661 7.60855 27.9847 16.5107 27.9929 16.8142C27.1951 22.9013 22.4933 23.2872 21.6288 23.5507C21.2592 23.6631 17.8297 24.4712 13.5233 24.2077Z" fill="white"/>
<path d="M19.6704 20.969C19.3403 20.8801 19.0258 20.8204 18.7334 20.7132C15.7057 19.6001 12.9193 18.1641 10.7122 15.963C9.45703 14.7113 8.47464 13.2982 7.64426 11.8027C7.25042 11.0935 6.91857 10.3566 6.58026 9.62425C6.27184 8.95659 6.72616 8.26683 7.20448 7.76362C7.65338 7.29141 8.23109 6.93016 8.8567 6.66373C9.34495 6.4559 9.82651 6.57577 10.1832 6.94244C10.954 7.73529 11.6623 8.56865 12.2355 9.48771C12.5881 10.053 12.4914 10.744 11.8523 11.1286C11.6969 11.2221 11.5554 11.332 11.4107 11.4375C11.2838 11.5301 11.1644 11.6236 11.0774 11.7489C10.9184 11.9781 10.9108 12.2486 11.0131 12.4978C11.8011 14.4167 13.1293 15.9089 15.3092 16.7127C15.658 16.8412 16.0082 16.9909 16.4101 16.9495C17.083 16.8798 17.301 16.2256 17.7726 15.8839C18.2335 15.55 18.8226 15.5456 19.3191 15.824C19.8158 16.1026 20.2971 16.4015 20.7756 16.7037C21.2454 17.0003 21.713 17.2902 22.1462 17.6285C22.5629 17.9536 22.7064 18.3801 22.4717 18.8212C22.0423 19.6293 21.4173 20.3014 20.5159 20.7305C20.2614 20.8514 19.9574 20.8906 19.6704 20.969C19.3403 20.8801 19.9574 20.8906 19.6704 20.969Z" fill="white"/>
<path d="M15.0086 5.73961C18.9688 5.838 22.2216 8.16675 22.9187 11.636C23.0375 12.2272 23.0797 12.8314 23.1326 13.4315C23.1548 13.6838 22.9935 13.9235 22.6862 13.9269C22.3688 13.9303 22.226 13.6948 22.2052 13.4427C22.1645 12.9434 22.1362 12.4417 22.0585 11.9467C21.6486 9.33261 19.2963 7.16996 16.3598 6.70592C15.9178 6.63607 15.4658 6.61776 15.0181 6.57613C14.7352 6.54985 14.3647 6.53471 14.302 6.22297C14.2495 5.96165 14.4983 5.75362 14.7791 5.74022C14.8552 5.73623 14.932 5.7394 15.0086 5.73961C18.969 5.838 14.932 5.7394 15.0086 5.73961Z" fill="white"/>
<path d="M21.026 12.653C21.0194 12.6968 21.016 12.7998 20.9869 12.8968C20.8819 13.249 20.2789 13.2931 20.1403 12.9377C20.0991 12.8322 20.093 12.7122 20.0927 12.5986C20.0913 11.8555 19.9091 11.113 19.486 10.4663C19.0512 9.80157 18.3868 9.24303 17.6078 8.9048C17.1367 8.70045 16.6273 8.57332 16.1109 8.49774C15.8852 8.4646 15.6571 8.44465 15.4303 8.41663C15.1555 8.38278 15.0087 8.22762 15.0218 7.98768C15.0339 7.76287 15.2194 7.60097 15.496 7.61498C16.4047 7.6606 17.2827 7.83488 18.0908 8.21392C19.7338 8.98498 20.6724 10.2019 20.9464 11.827C20.9588 11.9007 20.9786 11.9735 20.985 12.0474C21.0004 12.2296 21.0103 12.4122 21.026 12.653C21.0194 12.6966 21.0103 12.4122 21.026 12.653Z" fill="white"/>
<path d="M18.5621 12.5678C18.2309 12.5732 18.0536 12.4105 18.0193 12.1416C17.9956 11.954 17.9767 11.7637 17.9261 11.5811C17.8266 11.2214 17.6109 10.8881 17.2695 10.6677C17.1084 10.5637 16.9256 10.4879 16.7344 10.4388C16.4914 10.3766 16.2388 10.3937 15.9966 10.3412C15.7333 10.284 15.5876 10.095 15.6291 9.87621C15.6667 9.67698 15.8853 9.52152 16.131 9.53737C17.6664 9.63555 18.7638 10.3389 18.9204 11.9406C18.9316 12.0536 18.9445 12.173 18.9163 12.2813C18.8676 12.4661 18.7129 12.5588 18.5621 12.5678C18.2308 12.5731 18.7129 12.5588 18.5621 12.5678Z" fill="white"/>
</svg>

<svg width="31" height="30" fill="none" xmlns="http://www.w3.org/2000/svg" viewBox="0 0 31 30">
  <path d="M30.21 17.367c.976-7.527-.469-12.279-3.076-14.428l.001-.001c-4.208-3.67-18.42-4.214-23.454.165C1.42 5.244.623 8.388.536 12.279c-.087 3.893-.19 11.186 7.229 13.164h.006l-.006 3.02s-.05 1.225.803 1.47c.976.29 1.418-.278 4.455-3.6 5.078.404 8.978-.52 9.421-.655 1.026-.315 6.828-1.018 7.766-8.31zm-16.687 6.84s-3.214 3.671-4.213 4.624c-.328.31-.686.281-.68-.333 0-.404.024-5.016.024-5.016-6.29-1.651-5.92-7.86-5.852-11.109.069-3.25.718-5.91 2.632-7.703C9.851.877 22.311 1.725 25.485 4.458c3.881 3.15 2.5 12.053 2.508 12.356-.798 6.087-5.5 6.473-6.364 6.737-.37.112-3.8.92-8.106.657z" fill="#fff"/>
  <path d="M19.67 20.969c-.33-.089-.644-.149-.937-.256-3.027-1.113-5.814-2.549-8.02-4.75-1.256-1.252-2.238-2.665-3.069-4.16-.394-.71-.725-1.446-1.064-2.179-.308-.667.146-1.357.624-1.86.45-.473 1.027-.834 1.653-1.1.488-.208.97-.088 1.326.278.771.793 1.48 1.627 2.053 2.546.352.565.255 1.256-.384 1.64-.155.094-.297.204-.441.31a1.366 1.366 0 00-.334.31.768.768 0 00-.064.75c.788 1.919 2.116 3.41 4.296 4.215.349.128.7.278 1.101.236.673-.07.891-.723 1.363-1.065.46-.334 1.05-.338 1.546-.06.497.279.978.577 1.457.88.47.296.937.586 1.37.924.417.326.56.752.326 1.193-.43.808-1.055 1.48-1.956 1.91-.255.12-.559.16-.846.238-.33-.089.287-.078 0 0zM15.009 5.74c3.96.098 7.213 2.427 7.91 5.896.119.591.16 1.195.214 1.796.022.252-.14.492-.447.495-.317.003-.46-.232-.48-.484-.041-.5-.07-1.001-.148-1.496-.41-2.614-2.762-4.777-5.698-5.241-.442-.07-.894-.088-1.342-.13-.283-.026-.653-.041-.716-.353-.053-.261.196-.47.477-.483.076-.004.153 0 .23 0 3.96.098-.077 0 0 0z" fill="#fff"/>
  <path d="M21.026 12.653c-.007.044-.01.147-.04.244-.104.352-.707.396-.846.04a.947.947 0 01-.047-.338c-.002-.744-.184-1.486-.607-2.133a4.308 4.308 0 00-1.878-1.561 5.917 5.917 0 00-1.497-.407c-.226-.033-.454-.053-.68-.081-.275-.034-.422-.19-.41-.43.013-.224.198-.386.475-.372.909.046 1.787.22 2.595.599 1.643.771 2.581 1.988 2.855 3.613.013.074.033.146.039.22.015.183.025.365.041.606-.007.044-.016-.24 0 0z" fill="#fff"/>
  <path d="M18.562 12.568c-.331.005-.508-.157-.543-.426-.023-.188-.042-.378-.093-.56a1.57 1.57 0 00-.656-.914 1.824 1.824 0 00-.536-.23c-.243-.061-.495-.044-.737-.097-.264-.057-.41-.246-.368-.465.038-.199.256-.354.502-.339 1.535.099 2.633.802 2.79 2.404.01.113.024.232-.005.34a.381.381 0 01-.354.287c-.331.005.15-.01 0 0z" fill="#fff"/>
</svg>
